public/img/terreo.svg

<svg width="1145" height="1081" fill="none" xmlns="http://www.w3.org/2000/svg"><path d="M326.148 844.236c-1.695-23.807-7.408-48.39-17.61-74.682m17.61 104.969a221.262 221.262 0 01-3.454 26.091m0 0c-10.403 54.035-40.615 107.926-84.665 173.526l-7.274-6.64m91.939-166.886h65.431m0 0v-5.126m0 5.126v5.125m-79.587-136.185c-14.279-36.801-37.352-76.951-70.509-123.006L3 859.612 214.321 1052.5m94.217-282.946h14.589m237.792 65.164h4.393m-4.393 0h-4.393m4.393 0V706.5m-16.108 194.114h16.108v-16.84m-16.108 16.84v-5.126m0 5.126v5.125m16.108-21.965h-4.393m4.393 0h4.393M238.029 512.56h51.252m-51.252 0v-63.7m0 63.7v60.038m51.252-60.038h33.68m-33.68 0v15.375m271.638 114.22V706.5m0-64.345v-65.896m0 65.896H499m61.919-65.896v-62.967m0 62.967h-65.896m-21.233 0v-41.734m0 41.734h4.393m-4.393 0v43.199m87.129-106.166H473.79v4.393m87.129-4.393V495.72h71.021v-90.79h-71.021m0 0v-19.769m0 19.769v25.626m0-45.395V211.635H935.5M560.919 385.161h-21.233m-216.725 0h-84.932v63.699m84.932-63.699h192.563m-192.563 0v3.661m0 123.738h43.931v95.183m-43.931-95.183v-5.858m-84.932-57.842h84.932m0 0v-13.911m0 13.911v33.68m0-47.591h20.501m-20.501 0v-29.287m0 76.878h43.931v-47.591h-4.393m-39.538 47.591v6.59m192.563-103.969V211.635h-39.537m39.537 173.526h5.125m-44.662-173.526v41.002H347.123v-41.002h-33.68V40.305h289.942m-127.398 171.33v-6.59m127.398-164.74v128.131m0-128.13V1.5H796.68v38.805M603.385 168.436H475.987v6.59m127.398-6.59h88.594m297.264 43.199v42.466h62.967v21.233h24.89m-87.857-63.699v-7.322m0 7.322H972.5m16.743-171.33H1143v171.33h-25.63v63.699h-3.66M989.243 40.305H796.68m192.563 0v128.131M796.68 40.306v128.13m0 0h-71.753m71.753 0h73.95m118.613 0h-85.665m85.665 0v8.054M560.919 430.556h46.859v41.002h-46.859v-41.002zM323.127 769.554v-4.393m0 4.393v5.125m29.177-5.125h14.588V706.5m-14.588 63.054v5.125m0-5.125v-4.393m14.588-157.418h4.393m-4.393 0h-4.393m4.393 24.162h-4.393m4.393 0h4.393m-4.393 0v8.595m-77.611-94.26v94.26m-51.252-47.401v47.592l51.252-.191m184.509-3.47v5.125H499m436.5-430.52V207.5m0 4.135V216m37-4.365V216m0-4.365V207.5M319 640.5h-29.719m77.611 0H347m19.892 0v66m0 0H399m41 0h59m61.919 0H499m0 0V664m0-21.845v5.345" stroke="#18211A" stroke-width="3"/><path d="M325.89 843.504v31.483M214 1052l17 16M289.281 527.935v18.305M399 706.5h41.734M238.029 572.598v20.501M319 640.5h28M499 647.5V664M473.79 619.458v17.572M478.183 576.259h16.84M473.79 517.685v16.84M322.961 489.13v17.572M343.462 434.949h19.037M322.961 388.822v16.84M520.649 385.161h19.037M475.987 175.026v30.019M691.979 168.436h32.948M870.63 168.436h32.948M989.243 176.49v27.823M1077.1 275.334h36.61" stroke="#F82"/><path d="M563.293 858.293a.999.999 0 000 1.414l6.364 6.364a.999.999 0 101.414-1.414L565.414 859l5.657-5.657a.999.999 0 10-1.414-1.414l-6.364 6.364zM602 858h-38v2h38v-2zM467.707 906.293a.999.999 0 00-1.414 0l-6.364 6.364a.999.999 0 101.414 1.414l5.657-5.657 5.657 5.657a.999.999 0 101.414-1.414l-6.364-6.364zM468 945v-38h-2v38h2zM217 584v-1h-1v1h1zm13.707.707a.999.999 0 000-1.414l-6.364-6.364a.999.999 0 10-1.414 1.414l5.657 5.657-5.657 5.657a.999.999 0 101.414 1.414l6.364-6.364zM217 585h13v-2h-13v2zm-1-1v47.5h2V584h-2zM207 1075l-.707.71.707.7.707-.7-.707-.71zm9-8c0-.55-.448-1-1-1h-9c-.552 0-1 .45-1 1s.448 1 1 1h8v8c0 .55.448 1 1 1s1-.45 1-1v-9zm-8.293 8.71l8-8-1.414-1.42-8 8 1.414 1.42zm0-1.42l-33.5-33.5-1.414 1.42 33.5 33.5 1.414-1.42zM953.707 218.293a.999.999 0 00-1.414 0l-6.364 6.364a.999.999 0 101.414 1.414l5.657-5.657 5.657 5.657a.999.999 0 101.414-1.414l-6.364-6.364zM954 253v-34h-2v34h2zM620 418h1v-1h-1v1zm-47.707-.707a.999.999 0 000 1.414l6.364 6.364a.999.999 0 101.414-1.414L574.414 418l5.657-5.657a.999.999 0 10-1.414-1.414l-6.364 6.364zM620 484.5v1h1v-1h-1zm0-67.5h-47v2h47v-2zm-1 1v66.5h2V418h-2zm1 65.5h-60v2h60v-2z" fill="#5D7"/></svg>

<svg width="1145" height="1081" viewBox="0 0 1145 1081" fill="none" xmlns="http://www.w3.org/2000/svg">
<path d="M326.148 844.236C324.453 820.429 318.74 795.846 308.538 769.554M326.148 874.523C325.524 883.257 324.364 891.937 322.694 900.614M322.694 900.614C312.291 954.649 282.079 1008.54 238.029 1074.14L230.755 1067.5M322.694 900.614H388.125M388.125 900.614V895.488M388.125 900.614V905.739M308.538 769.554C294.259 732.753 271.186 692.603 238.029 646.548L3 859.612L214.321 1052.5M308.538 769.554H323.127M560.919 834.718H565.312M560.919 834.718H556.526M560.919 834.718V706.5M544.811 900.614H560.919V883.774M544.811 900.614V895.488M544.811 900.614V905.739M560.919 883.774H556.526M560.919 883.774H565.312M238.029 512.56H289.281M238.029 512.56V448.86M238.029 512.56V572.598M289.281 512.56H322.961M289.281 512.56V527.935M560.919 642.155V705.854V706.5M560.919 642.155V576.259M560.919 642.155H499M560.919 576.259V513.292M560.919 576.259H495.023M473.79 576.259V534.525M473.79 576.259H478.183M473.79 576.259V619.458M560.919 513.292H473.79V517.685M560.919 513.292V495.72H631.94V404.93H560.919M560.919 404.93V385.161M560.919 404.93V417.743V430.556M560.919 385.161V211.635H935.5M560.919 385.161H539.686M322.961 385.161H238.029V448.86M322.961 385.161H515.524M322.961 385.161V388.822M322.961 512.56H366.892V607.743M322.961 512.56V506.702M238.029 448.86H322.961M322.961 448.86V448.128V434.949M322.961 448.86V482.54M322.961 434.949H343.462M322.961 434.949V405.662M322.961 482.54H366.892V434.949H362.499M322.961 482.54V489.13M515.524 385.161V211.635H475.987M515.524 385.161H520.649M475.987 211.635V252.637H347.123V211.635H313.443V40.3054H603.385M475.987 211.635V205.045M603.385 40.3054V168.436M603.385 40.3054V1.5H796.68V40.3054M603.385 168.436H475.987V175.026M603.385 168.436H691.979M989.243 211.635V254.101H1052.21V275.334H1077.1M989.243 211.635V204.313M989.243 211.635H972.5M989.243 40.3054H1143V211.635H1117.37V275.334H1113.71M989.243 40.3054H796.68M989.243 40.3054V168.436M796.68 40.3054V168.436M796.68 168.436H724.927M796.68 168.436H870.63M989.243 168.436H903.578M989.243 168.436V176.49M560.919 430.556H607.778V471.558H560.919V430.556ZM323.127 769.554V765.161M323.127 769.554V774.679M352.304 769.554H366.892V706.5M352.304 769.554V774.679M352.304 769.554V765.161M366.892 607.743H371.285M366.892 607.743H362.499M366.892 631.905H362.499M366.892 631.905H371.285M366.892 631.905V640.5M289.281 546.24V576.625V638.5V640.5M238.029 593.099V640.691L289.281 640.5M473.79 637.03V642.155H494H499M935.5 211.635V207.5M935.5 211.635V216M972.5 211.635V216M972.5 211.635V207.5M319 640.5H289.281M366.892 640.5H347M366.892 640.5V703.027V706.5M366.892 706.5H399M440 706.5H499M560.919 706.5H499M499 706.5V664M499 642.155V647.5" stroke="#18211A" stroke-width="3"/>
<path d="M325.89 843.504V874.987" stroke="#FF8822"/>
<path d="M214 1052L231 1068" stroke="#FF8822"/>
<path d="M289.281 527.935V546.24" stroke="#FF8822"/>
<path d="M399 706.5H440.734" stroke="#FF8822"/>
<path d="M238.029 572.598V593.099" stroke="#FF8822"/>
<path d="M319 640.5H347" stroke="#FF8822"/>
<path d="M499 647.5V664" stroke="#FF8822"/>
<path d="M473.79 619.458V637.03" stroke="#FF8822"/>
<path d="M478.183 576.259H495.023" stroke="#FF8822"/>
<path d="M473.79 517.685V534.525" stroke="#FF8822"/>
<path d="M322.961 489.13V506.702" stroke="#FF8822"/>
<path d="M343.462 434.949H362.499" stroke="#FF8822"/>
<path d="M322.961 388.822V405.662" stroke="#FF8822"/>
<path d="M520.649 385.161H539.686" stroke="#FF8822"/>
<path d="M475.987 175.026V205.045" stroke="#FF8822"/>
<path d="M691.979 168.436H724.927" stroke="#FF8822"/>
<path d="M870.63 168.436H903.578" stroke="#FF8822"/>
<path d="M989.243 176.49V204.313" stroke="#FF8822"/>
<path d="M1077.1 275.334H1113.71" stroke="#FF8822"/>
<path d="M563.293 858.293C562.902 858.683 562.902 859.317 563.293 859.707L569.657 866.071C570.047 866.462 570.681 866.462 571.071 866.071C571.462 865.681 571.462 865.047 571.071 864.657L565.414 859L571.071 853.343C571.462 852.953 571.462 852.319 571.071 851.929C570.681 851.538 570.047 851.538 569.657 851.929L563.293 858.293ZM602 858L564 858L564 860L602 860L602 858Z" fill="#55DD77"/>
<path d="M467.707 906.293C467.317 905.902 466.683 905.902 466.293 906.293L459.929 912.657C459.538 913.047 459.538 913.681 459.929 914.071C460.319 914.462 460.953 914.462 461.343 914.071L467 908.414L472.657 914.071C473.047 914.462 473.681 914.462 474.071 914.071C474.462 913.681 474.462 913.047 474.071 912.657L467.707 906.293ZM468 945L468 907L466 907L466 945L468 945Z" fill="#55DD77"/>
<path d="M217 584V583H216V584H217ZM230.707 584.707C231.098 584.317 231.098 583.683 230.707 583.293L224.343 576.929C223.953 576.538 223.319 576.538 222.929 576.929C222.538 577.319 222.538 577.953 222.929 578.343L228.586 584L222.929 589.657C222.538 590.047 222.538 590.681 222.929 591.071C223.319 591.462 223.953 591.462 224.343 591.071L230.707 584.707ZM217 585H230V583H217V585ZM216 584V631.5H218V584H216Z" fill="#55DD77"/>
<path d="M207 1075L206.293 1075.71L207 1076.41L207.707 1075.71L207 1075ZM216 1067C216 1066.45 215.552 1066 215 1066L206 1066C205.448 1066 205 1066.45 205 1067C205 1067.55 205.448 1068 206 1068L214 1068L214 1076C214 1076.55 214.448 1077 215 1077C215.552 1077 216 1076.55 216 1076L216 1067ZM207.707 1075.71L215.707 1067.71L214.293 1066.29L206.293 1074.29L207.707 1075.71ZM207.707 1074.29L174.207 1040.79L172.793 1042.21L206.293 1075.71L207.707 1074.29Z" fill="#55DD77"/>
<path d="M953.707 218.293C953.317 217.902 952.683 217.902 952.293 218.293L945.929 224.657C945.538 225.047 945.538 225.681 945.929 226.071C946.319 226.462 946.953 226.462 947.343 226.071L953 220.414L958.657 226.071C959.047 226.462 959.681 226.462 960.071 226.071C960.462 225.681 960.462 225.047 960.071 224.657L953.707 218.293ZM954 253L954 219L952 219L952 253L954 253Z" fill="#55DD77"/>
<path d="M620 418H621V417H620V418ZM572.293 417.293C571.902 417.683 571.902 418.317 572.293 418.707L578.657 425.071C579.047 425.462 579.681 425.462 580.071 425.071C580.462 424.681 580.462 424.047 580.071 423.657L574.414 418L580.071 412.343C580.462 411.953 580.462 411.319 580.071 410.929C579.681 410.538 579.047 410.538 578.657 410.929L572.293 417.293ZM620 484.5V485.5H621V484.5H620ZM620 417H573V419H620V417ZM619 418V484.5H621V418H619ZM620 483.5H560V485.5H620V483.5Z" fill="#55DD77"/>
</svg>
